!!!COM: Palestrina, Giovanni Perluigi da
!!!OPR: Missa Ad coenam Agni
!!!OMD: Kyrie
!!!OTL: Christe
**kern	**kern	**kern	**kern
*Itenor	*Icalto	*Icalto	*Icant
!Tenor	!Altus 2	!Altus 1	!Cantus
*clefGv2	*clefG2	*clefG2	*clefG2
*k[]	*k[]	*k[]	*k[]
*G:mix	*G:mix	*G:mix	*G:mix
*M4/2	*M4/2	*M4/2	*M4/2
=29	=29	=29	=29
0r	0r	2r	1g
.	.	1g	.
.	.	.	1a
.	.	2f	.
=30	=30	=30	=30
2r	0r	2.e	1g
1g	.	.	.
.	.	4d	.
.	.	2c	1a
2f	.	2d	.
=31	=31	=31	=31
2e	1r	1G	1b
2d	.	.	.
1c	2r	1r	1cc
.	[2g	.	.
=32	=32	=32	=32
1d	2g]	1r	1a
.	2f	.	.
1G	2e	2r	1b
.	2d	[2g	.
=33	=33	=33	=33
0r	2c	2g]	1a
.	2d	2f	.
.	1G	2e	1b
.	.	2d	.
=34	=34	=34	=34
2r	1r	1c	1cc
1g	.	.	.
.	2r	1d	1a
2f	2d	.	.
=35	=35	=35	=35
1e	2e	1r	1g
.	1g	.	.
1d	.	2r	1a
.	2f#	2d	.
=36	=36	=36	=36
1c	0g	2e	1cc
.	.	4c	.
.	.	4d	.
2r	.	4e	1b
.	.	4f	.
2G	.	2g	.
=37	=37	=37	=37
2A	1r	2f	1cc
1c	.	2e	.
.	2r	2d	1dd
2B	2d	[2g	.
=38	=38	=38	=38
1A	2e	2g]	1cc
.	4c	2f#	.
.	4d	.	.
1G	4e	1g	1b
.	4f	.	.
.	[2g	.	.
=39	=39	=39	=39
2r	2g]	1d	1a
1d	2f#	.	.
.	2.g	1G	1b
2e	.	.	.
.	4f	.	.
=40	=40	=40	=40
1c	4e	2A	1cc
.	4d	.	.
.	2e	1c	.
1G	1d	.	1dd
.	.	2B	.
=41	=41	=41	=41
2r	1G	2d	1b
2G	.	2.e	.
2A	1r	.	1cc
.	.	4c	.
4F	.	2f	.
4G	.	.	.
=42	=42	=42	=42
4A	0r	2.e	1cc
4B	.	.	.
4c	.	.	.
4d	.	4f	.
4e	.	1g	1b
4f	.	.	.
[2g	.	.	.
=43	=43	=43	=43
2g]	1r	1d	1a
2f#	.	.	.
1g	2r	1G	1b
.	2g	.	.
=44	=44	=44	=44
0r	2e	1r	1cc
.	2f	.	.
.	4g	2r	1b
.	4f	.	.
.	4e	2g	.
.	4d	.	.
=45	=45	=45	=45
1r	2c	2e	1a
.	2d	2f	.
2r	1G	4g	1b
.	.	4f	.
2g	.	4e	.
.	.	4d	.
=46	=46	=46	=46
2e	2r	2c	1a
2f	2d	2d	.
4g	2B	2G	1g
4f	.	.	.
4e	2c	2g	.
4d	.	.	.
=47	=47	=47	=47
2c	2A	2a	1r
2B	1d	1g	.
1A	.	.	1a
.	2c	2f#	.
=48	=48	=48	=48
2G	2d	1g	1b
2g	2G	.	.
2e	1A	1r	1cc
2f	.	.	.
=49	=49	=49	=49
4g	1G	2r	1b
4f	.	.	.
4e	.	2g	.
4d	.	.	.
2c	1r	2e	1a
2d	.	2f	.
=50	=50	=50	=50
1G	2r	4g	1b
.	.	4f	.
.	2g	4e	.
.	.	4d	.
2r	2e	2c	1a
2d	2f	2d	.
=51	=51	=51	=51
2B	4g	2G	[0g
.	4f	.	.
2c	4e	1c	.
.	4d	.	.
2e	2c	.	.
[2d	2B	2d	.
=52	=52	=52	=52
4d]	2.c	1e	1g_
4c	.	.	.
1c	.	.	.
.	4d	.	.
.	2e	2c	1g_
2B	2d	2d	.
=53	=53	=53	=53
1.c	2c	1e	0g]
.	1e	.	.
.	.	1c	.
4B	4d	.	.
4A	4c	.	.
=54	=54	=54	=54
[0G	[0B	[0d	[0g
=55	=55	=55	=55
0G]	0B]	0d]	0g]
==	==	==	==
*-	*-	*-	*-
!!!CDT: 1525/^1526/-1594/2/2
!!!OCY: Italia
!!!AGN: Mass (Canonic)
!!!AST: renaissance, vocal
!!!ASW: Hymn
!!!PWK: Masses, Book I
!!!RNB: Cadence finals: C
!!!YOR: Le Opere Complete, v. 1, p. 125
!!!YOO: Rome, Italy: Fratelli Scalera
!!!END: 1992//
!!!EED: John Miller
!!!YEC: Copyright 2000, John Miller
!!!YEN: United States of America
!!!YEM: Rights to all derivative electronic formats reserved.
!!!YEM: Refer to licensing agreement for further details.
!!!YEM: This file must be accompanied by the licensing agreement.
!!!YEM: A copy of the licensing agreement may be found at http://www.music-cog.ohio-state.edu/HumdrumDatabases/Palestrina/license.txt
!!!EMD: converted to Humdrum by Bret Aarden
